docs/images/clover-tile.svg

<svg xmlns="http://www.w3.org/2000/svg" width="64" height="64">
    <rect width="64" height="64" rx="15" ry="15" style="fill:#009e60;fill-opacity:1;stroke:none"/>
    <path d="m28.386 33.612.104-.104 1.326-1.43.052-.078-.052-.078c-.416-.494-.884-.962-1.3-1.43l-.13-.104c-5.694-6.266-9.308-10.01-13.078-11.076A8.6 8.6 0 0 0 12.994 19C9.094 19 6 22.25 6 26.15c0 1.638.494 3.25 1.43 4.55.338.468.728.91 1.17 1.3-.442.39-.832.832-1.17 1.3C6.494 34.6 6 36.264 6 38.006 6 41.906 9.25 45 13.15 45c.728 0 1.456-.104 2.158-.286C19 43.7 22.64 39.93 28.386 33.612M22.822 32c-2.34 2.522-4.134 4.394-5.746 5.746-2.158 1.82-3.276 2.054-3.926 2.054-1.17 0-1.95-.91-1.95-1.794 0-.988.364-1.69.858-2.106L16.4 32l-4.342-3.9c-.52-.442-.858-1.17-.858-1.95 0-1.17.91-1.95 1.794-1.95.806 0 1.924.26 4.082 2.08 1.612 1.326 3.406 3.198 5.746 5.72m-3.51 16.718A8.4 8.4 0 0 0 19 51.006c0 3.9 3.25 6.994 7.15 6.994 1.638 0 3.25-.494 4.55-1.43.468-.338.91-.728 1.3-1.17.39.442.832.832 1.3 1.17 1.3.936 2.964 1.43 4.706 1.43 3.9 0 6.994-3.25 6.994-7.15 0-.728-.104-1.456-.286-2.158C43.7 45 39.93 41.36 33.612 35.614l-.104-.104-1.43-1.3-.078-.078-.078.078-1.43 1.3-.104.078c-6.266 5.72-10.01 9.334-11.076 13.13M32 41.178c2.522 2.34 4.394 4.134 5.746 5.746 1.82 2.158 2.054 3.276 2.054 3.926 0 1.17-.91 1.95-1.794 1.95-.988 0-1.69-.364-2.106-.858L32 47.6l-3.9 4.342c-.442.52-1.17.858-1.95.858-1.17 0-1.95-.91-1.95-1.794 0-.806.26-1.924 2.08-4.082 1.326-1.612 3.198-3.406 5.72-5.746m3.614-7.566c5.72 6.266 9.308 10.01 13.104 11.076a8.4 8.4 0 0 0 2.288.312c3.9 0 6.994-3.25 6.994-7.15 0-1.638-.494-3.25-1.43-4.55A8 8 0 0 0 55.4 32c.442-.39.832-.832 1.17-1.3.936-1.3 1.43-2.938 1.43-4.706 0-3.9-3.25-6.994-7.15-6.994-.728 0-1.456.104-2.158.286C45 20.3 41.36 24.07 35.614 30.388l-.078.104L34.158 32l1.378 1.508zM41.204 32c2.314-2.522 4.134-4.394 5.72-5.746 2.184-1.82 3.276-2.054 3.926-2.054 1.17 0 1.95.91 1.95 1.794 0 .988-.364 1.69-.858 2.106L47.6 32l4.342 3.9c.52.468.858 1.17.858 1.95 0 1.17-.91 1.95-1.794 1.95-.806 0-1.924-.26-4.082-2.08-1.586-1.326-3.406-3.198-5.72-5.72m-7.592-3.588c6.266-5.72 10.01-9.334 11.076-13.104A8.6 8.6 0 0 0 45 12.994C45 9.094 41.75 6 37.85 6c-1.638 0-3.25.494-4.55 1.43-.468.338-.91.728-1.3 1.17a8 8 0 0 0-1.3-1.17C29.4 6.494 27.762 6 25.994 6 22.094 6 19 9.25 19 13.15c0 .728.104 1.456.286 2.158C20.3 19 24.07 22.64 30.388 28.412l.104.078 1.43 1.3.078.078.078-.052 1.456-1.326.078-.104M32 22.822c-2.522-2.34-4.394-4.134-5.746-5.746-1.82-2.158-2.054-3.276-2.054-3.926 0-1.17.91-1.95 1.794-1.95.988 0 1.69.364 2.106.858L32 16.4l3.9-4.342a2.63 2.63 0 0 1 1.95-.858c1.17 0 1.95.91 1.95 1.794 0 .806-.26 1.924-2.08 4.082-1.326 1.612-3.198 3.406-5.72 5.746" style="fill:#fff;fill-opacity:1;stroke-width:2.59999"/>
</svg>

<?xml version="1.0" encoding="UTF-8" standalone="no"?>
<svg
   id="mdi-clover-outline"
   viewBox="0 0 64 64"
   version="1.1"
   sodipodi:docname="clover-tile.svg"
   inkscape:version="1.1.2 (0a00cf5339, 2022-02-04)"
   width="64"
   height="64"
   xmlns:inkscape="http://www.inkscape.org/namespaces/inkscape"
   xmlns:sodipodi="http://sodipodi.sourceforge.net/DTD/sodipodi-0.dtd"
   xmlns="http://www.w3.org/2000/svg"
   xmlns:svg="http://www.w3.org/2000/svg">
  <defs
     id="defs7" />
  <sodipodi:namedview
     id="namedview5"
     pagecolor="#ffffff"
     bordercolor="#666666"
     borderopacity="1.0"
     inkscape:pageshadow="2"
     inkscape:pageopacity="0.0"
     inkscape:pagecheckerboard="0"
     showgrid="false"
     inkscape:zoom="12.609375"
     inkscape:cx="32"
     inkscape:cy="32"
     inkscape:window-width="1850"
     inkscape:window-height="1016"
     inkscape:window-x="0"
     inkscape:window-y="0"
     inkscape:window-maximized="1"
     inkscape:current-layer="mdi-clover-outline" />
  <rect
     style="fill:#009e60;fill-opacity:1;stroke:none"
     id="rect2997"
     width="64"
     height="64"
     x="0"
     y="0"
     rx="15"
     ry="15" />
  <path
     d="m 28.386001,33.612 0.104,-0.104 1.326,-1.43 0.052,-0.078 -0.052,-0.078 c -0.416,-0.494 -0.884,-0.962 -1.3,-1.43 l -0.13,-0.104 c -5.694,-6.266 -9.308,-10.01 -13.078,-11.076 -0.754,-0.208 -1.508,-0.312 -2.314,-0.312 C 9.0940012,19 6,22.25 6,26.15 6,27.788 6.494,29.4 7.43,30.7 7.7680001,31.168 8.1580001,31.61 8.6000012,32 8.1580001,32.39 7.7680001,32.832 7.43,33.3 6.494,34.6 6,36.264 6,38.006 6,41.906 9.2500011,45 13.150001,45 c 0.728,0 1.456,-0.104 2.158,-0.286 3.692,-1.014 7.332,-4.784 13.078,-11.102 M 22.822001,32 c -2.34,2.522 -4.134,4.394 -5.746,5.746 -2.158,1.82 -3.276,2.054 -3.926,2.054 -1.17,0 -1.95,-0.91 -1.95,-1.794 0,-0.988 0.364,-1.69 0.858,-2.106 l 4.342,-3.9 -4.342,-3.9 c -0.52,-0.442 -0.858,-1.17 -0.858,-1.95 0,-1.17 0.91,-1.95 1.794,-1.95 0.806,0 1.924,0.26 4.082,2.08 1.612,1.326 3.406,3.198 5.746,5.72 m -3.51,16.718 c -0.208,0.754 -0.312,1.482 -0.312,2.288 0,3.9 3.25,6.994 7.15,6.994 1.638,0 3.25,-0.494 4.55,-1.43 0.468,-0.338 0.91,-0.728 1.299999,-1.17 0.39,0.442 0.832,0.832 1.3,1.17 C 34.6,57.506 36.264,58 38.006,58 41.906,58 45,54.75 45,50.85 45,50.122 44.896,49.394 44.714,48.692 43.7,45 39.93,41.36 33.612,35.614 L 33.508,35.51 32.078,34.21 32,34.132 l -0.078,0.078 -1.429999,1.3 -0.104,0.078 c -6.266,5.72 -10.01,9.334 -11.076,13.13 M 32,41.178 c 2.522,2.34 4.394,4.134 5.746,5.746 1.82,2.158 2.054,3.276 2.054,3.926 0,1.17 -0.91,1.95 -1.794,1.95 -0.988,0 -1.69,-0.364 -2.106,-0.858 L 32,47.6 28.100001,51.942 c -0.442,0.52 -1.17,0.858 -1.95,0.858 -1.17,0 -1.95,-0.91 -1.95,-1.794 0,-0.806 0.26,-1.924 2.08,-4.082 1.326,-1.612 3.198,-3.406 5.719999,-5.746 m 3.614,-7.566 c 5.72,6.266 9.308,10.01 13.104,11.076 C 49.472,44.896 50.2,45 51.006,45 54.906,45 58,41.75 58,37.85 58,36.212 57.506,34.6 56.57,33.3 56.232,32.832 55.842,32.39 55.4,32 55.842,31.61 56.232,31.168 56.57,30.7 57.506,29.4 58,27.762 58,25.994 58,22.094 54.75,19 50.85,19 50.122,19 49.394,19.104 48.692,19.286 45,20.3 41.36,24.07 35.614,30.388 L 35.536,30.492 34.158,32 v 0 0 l 1.378,1.508 0.078,0.104 M 41.204,32 c 2.314,-2.522 4.134,-4.394 5.72,-5.746 2.184,-1.82 3.276,-2.054 3.926,-2.054 1.17,0 1.95,0.91 1.95,1.794 0,0.988 -0.364,1.69 -0.858,2.106 L 47.6,32 l 4.342,3.9 c 0.52,0.468 0.858,1.17 0.858,1.95 0,1.17 -0.91,1.95 -1.794,1.95 -0.806,0 -1.924,-0.26 -4.082,-2.08 C 45.338,36.394 43.518,34.522 41.204,32 M 33.612,28.412 C 39.878,22.692 43.622,19.078 44.688,15.308 44.896,14.554 45,13.8 45,12.994 45,9.094 41.75,6 37.85,6 36.212,6 34.6,6.494 33.3,7.43 32.832,7.768 32.39,8.158 32,8.6 31.610001,8.158 31.168001,7.768 30.700001,7.43 c -1.3,-0.936 -2.938,-1.43 -4.706,-1.43 -3.9,0 -6.994,3.25 -6.994,7.15 0,0.728 0.104,1.456 0.286,2.158 1.014,3.692 4.784,7.332 11.102,13.104 l 0.104,0.078 1.429999,1.3 0.078,0.078 0.078,-0.052 1.456,-1.326 0.078,-0.104 M 32,22.822 c -2.521999,-2.34 -4.393999,-4.134 -5.745999,-5.746 -1.82,-2.158 -2.054,-3.276 -2.054,-3.926 0,-1.17 0.91,-1.95 1.794,-1.95 0.988,0 1.69,0.364 2.106,0.858 L 32,16.4 35.9,12.058 c 0.468,-0.52 1.17,-0.858 1.95,-0.858 1.17,0 1.95,0.91 1.95,1.794 0,0.806 -0.26,1.924 -2.08,4.082 -1.326,1.612 -3.198,3.406 -5.72,5.746 z"
     id="path2"
     style="fill:#ffffff;fill-opacity:1;stroke-width:2.59999" />
</svg>
